X: 119
T: Lady Burnards Reel
B: 204 Favourite Country Dances
N: Published by Straight & Skillern, London ca.1775
F: http://imslp.org/wiki/204_Favourite_Country_Dances_(Various) p.60 #119
Z: 2014 John Chambers <jc:trillian.mit.edu>
N: The f in bar 10 is marked with a natural, the similar f natural in bar 11 implies that it is f sharp, which makes more sense.
M: 9/8
L: 1/8
K: F
% - - - - - - - - - - - - - - - - - - - - - - - - -
|: AcA FAF afa | f2c dBG  EDC | ABc def gec | a2f efd c3 :|
|: gec bgb afd | f2e dcB  A2B | cAc def edc | dgB ABG F3 :|
|: cAF fed cAF | GAB dg^f g2G |=fed cde f2c | ABc dfe f2F :|
% - - - - - - - - - - - - - - - - - - - - - - - - -
%%begintext align
%% Cast off 2 Cu. cast up again cross over 1 Cu. lead
%% [ILLEGIBLE] Bottom Right and Left at top
%%endtext

%%sep 1 1 500
%%sep 1 1 500
